X:1
T:Treasure, 76.76 D
T:Treasure, 76.76 D
T:Chauncey Milton Wyman, 1870
T:Public Domain Courtesy of the Cyber Hymnal™
C:Chauncey Milton Wyman, 1870
Z:Public Domain
Z:Courtesy of the Cyber Hymnal™
%%score ( 1 2 ) ( 3 4 )
L:1/8
Q:1/4=113
M:4/4
K:A
V:1 treble 
V:2 treble 
V:3 bass 
V:4 bass 
V:1
 [CE]2 | [Ec]2 [DB]2 [CA]2 [CE]2 | [DF]4 [DA]2 [DF]2 | E2 [EA]2 [DG]2 [CA]2 | [EB]6 (cd) | %5
 [Ee]2 [Ec]2 [CA]2 E2 | [DF]4 [DA]2 [DF]2 | E2 [CA]2 [DB]2 [Ec]2 | [CA]6 [EA]2 | %9
 [EB]2 [Ac]2 [Ad]2 [Af]2 | [Ae]4 [Ec]2 [DB]2 | [CA]2 [^DB]2 [Dc]2 [DB]2 | B6 [EB]2 | %13
 [Ec]2 [EB]2 [EA]2 [CE]2 | [DF]4 !fermata![Fd]2 [DF]2 | E2 [CA]2 [DB]2 [Ec]2 | [CA]6 |] %17
V:2
 x2 | x8 | x8 | E2 x6 | x6 E2 | x6 E2 | x8 | E2 x6 | x8 | x8 | x8 | x8 | (E2 F2 E2) x2 | x8 | x8 | %15
 E2 x6 | x6 |] %17
V:3
 [A,,A,]2 | [A,,A,]2 [A,,A,]2 [A,,A,]2 [A,,A,]2 | [D,A,]4 [D,F,]2 [D,A,]2 | %3
 [C,A,]2 [C,A,]2 [B,,E,]2 [A,,A,]2 | [E,G,]6 (A,B,) | [A,C]2 A,2 A,2 [C,A,]2 | %6
 [D,A,]4 [D,F,]2 [D,A,]2 | [C,A,]2 [A,,A,]2 [E,G,]2 [E,G,]2 | [A,,A,]6 [A,C]2 | %9
 [G,E]2 [A,E]2 [F,D]2 [D,D]2 | [A,C]4 A,2 [E,G,]2 | F,2 F,2 [B,,F,]2 [B,,A,]2 | %12
 (G,2 A,2 G,2) [E,G,]2 | A,2 [E,G,]2 [C,A,]2 [A,,A,]2 | [D,A,]4 !fermata![D,A,]2 [D,A,]2 | %15
 [C,A,]2 [A,,A,]2 [E,G,]2 [E,G,]2 | [A,,A,]6 |] %17
V:4
 x2 | x8 | x8 | x8 | x6 A,2 | x2 A,2 A,2 x2 | x8 | x8 | x8 | x8 | x4 A,2 x2 | F,2 F,2 x4 | E,6 x2 | %13
 A,2 x6 | x8 | x8 | x6 |] %17

